X: 70
M: 4/4
L: 1/8
K: D
d3d A2B2 | AGFE D2"a."F2 | E2E2 [c2E2][c2E2] | [B2E2][B2E2] [c2E2]A2 |
d2d2 A2B2 | AGFE D2D2 | "b."E2E2 c2Bc | d4 d2 :: A2 |
d3d f2f2 | d2d2 f3f | g2gf e2"c."cd | edcB A2A2 |
d3d f2f2 | d2d2 f3f | g2gf e2ce | f2d2 d2 :|
P: Var:
"a."DD || "b."E3E | "c."c2 |]


